X: 1
T:Muxikoak
M:C|
O:Basque
K:C
gfef dece| d2G2 ABcd| ecdB c2z2::\
f2ff f2ed| e2f2 g2de| fdec d2de| fdec d2z2|\
gfef dece| d2G2 ABcd| ecdB c2z2::\
edef dece| d2B2 c2de| d2B2 c2de| d2B2 cdef| \
gfed c2z2 | GABG ABcd| ecdB c2z2 ::\
e2ee d2c2| gfed c2z2| GABG ABcd|1 ecdB c2z2 :|2 ecdB c2de |:\
d2cB c2de| d2B2 B2z2| GABG ABcd| ecdB c2de::\
d2cB cdef| g2g2 agfe| dcde c2z2::\
c2Bc d2d2| e2e2 dedc| BAG2 c2Bc| d2d2 egfe| dcde c2z2::\
c2de cdec| d3e fgef| dece dcBA| G2z2 c2de| cdec d2ef| g2g2 agfe| dcde c2
z2::\
AGAB AGAB| c2c2 dedc| BAG2 AGAB| AGAB cdef| g2g2 agfe| dcde c2z2::\
c2de f2e2| d3e f2e2| d2c2 B2c2| dcde c2G2| c2de fgef| dece d2G2| AcBd c2
z2::\
G2AB c2c2| defd e2c2| defg agfe|1 dcde c2BA :|2 dcde c2z2|:\
defd e2c2| defd e2z2| GABG ABcd| ecdB c2z2| \
defd e2c2| defg a2z2| de^fd efga fgaf g2z2 ::\
cdef  gfga| g2fe d2(3gfe| d2c2 B2(3gfe| d2c2 B2G2| c2d2 egfe| dcde c2z2
::\
cdef gfga| g2fe d2g2| cdef gfga1 g2fe d2z2 :|2 g2fe d2(3gfe|:\
d2c2 B2(3gfe| d2c2 B2G2| c2d2 egfe|1 dcde c2(3gfe :|2 dcde c2z2|:\
eggg eggg| efga g2d2| de^fg agab | ag^fe d2z2 | \
GABc d2d2| gfed e2c2| de^fg a2a2 ag^fe d2z2|:
e^fgf agfe| d3c B2c2| dedc BAG2| e^fgf agfe| \
d3c B2G2| BdBd B2A2| GABc d2z2| e2dc BABe| dcBA G2z2::\
BdBd B2d2| c2B2 A2B2| ABcd d2e2| cdec d2z2 :|\
d2g2 d2e2| cdec d2z2| d2g2 d2e2| cdec d2Bc| de^fg d2z2\
Bcde cdBc| ABGA B2G2| cBcd edcB| AGAB GABc| de^fg d2z2|\
Bcde cdBc| ABGA B2g2| de^fd efga| fgaf g2z2|:\
e2ee d2c2| B2c2 G2z2| cdef g2c2| edcB c2z2::\
cdef g2g2| gaga g2e2| c2de f2f2| fagf e2d2| e2ee d2c2| B2c2 G2cc| B2c2 G
2cc \
|1 B2c2d2z2 | cdef g2c2| edcB c2z2 :|2\
B2c2 d2g2| d>dd2 e^fg2| ^f2a2 g2z2|]
